img/icons/service-icon3.svg

<svg width="60" height="60" viewBox="0 0 60 60" fill="none" xmlns="http://www.w3.org/2000/svg">
<path fill-rule="evenodd" clip-rule="evenodd" d="M10 11.2489C10 10.5595 10.5587 10 11.25 10H35C36.3807 10 37.5 11.1193 37.5 12.5V37.5H28.4933C27.0443 37.5 25.8696 38.6747 25.8696 40.1238V41.6304C25.8696 46.2528 22.1224 50 17.5 50C13.3579 50 10 46.6421 10 42.5V40V35V30.5714V11.2489ZM5 35V30.5714V11.2489C5 7.79624 7.79914 5 11.25 5H35C39.1421 5 42.5 8.35786 42.5 12.5V37.5H52.3762C53.8253 37.5 55 38.6747 55 40.1238C55 48.3719 48.1835 55 40 55H17.5C10.6919 55 5.15507 49.5573 5.0032 42.7857H5V42.5V40V35ZM40 50H27.9263C29.5979 47.9203 30.6601 45.33 30.8417 42.5H41.25H42.5H49.7039C48.616 46.7887 44.6591 50 40 50ZM17.5 27.5C16.1193 27.5 15 28.6193 15 30C15 31.3807 16.1193 32.5 17.5 32.5H30C31.3807 32.5 32.5 31.3807 32.5 30C32.5 28.6193 31.3807 27.5 30 27.5H17.5ZM15 20C15 18.6193 16.1193 17.5 17.5 17.5H30C31.3807 17.5 32.5 18.6193 32.5 20C32.5 21.3807 31.3807 22.5 30 22.5H17.5C16.1193 22.5 15 21.3807 15 20Z" fill="white"/>
</svg>

<svg width="60" height="60" fill="none" xmlns="http://www.w3.org/2000/svg"><path fill-rule="evenodd" clip-rule="evenodd" d="M10 11.249c0-.69.559-1.249 1.25-1.249H35a2.5 2.5 0 012.5 2.5v25h-9.007a2.624 2.624 0 00-2.623 2.624v1.506A8.37 8.37 0 0117.5 50a7.5 7.5 0 01-7.5-7.5V11.249zM5 35V11.249A6.25 6.25 0 0111.25 5H35a7.5 7.5 0 017.5 7.5v25h9.876A2.624 2.624 0 0155 40.124C55 48.372 48.184 55 40 55H17.5c-6.808 0-12.345-5.443-12.497-12.214H5V35zm35 15H27.926a13.306 13.306 0 002.916-7.5h18.862C48.616 46.789 44.659 50 40 50zM17.5 27.5a2.5 2.5 0 000 5H30a2.5 2.5 0 000-5H17.5zM15 20a2.5 2.5 0 012.5-2.5H30a2.5 2.5 0 010 5H17.5A2.5 2.5 0 0115 20z" fill="#fff"/></svg>
